fs/home_database_32_regular.svg

<svg viewBox="0 0 32 32" fill="none" xmlns="http://www.w3.org/2000/svg" height="1em" width="1em">
  <path d="M16.8096 4.3006C16.3428 3.90383 15.6572 3.90383 15.1904 4.30059L5.44044 12.5881C5.16103 12.8256 5 13.1738 5 13.5405V26.5C5 26.7761 5.22386 27 5.5 27H15V27.5C15 28.0667 15.1672 28.5695 15.4217 29H5.5C4.11929 29 3 27.8807 3 26.5V13.5405C3 12.587 3.41868 11.6817 4.14515 11.0642L13.8952 2.77671C15.1088 1.74512 16.8912 1.74513 18.1049 2.77671L27.8549 11.0642C28.5813 11.6817 29 12.587 29 13.5405V14.9827C28.3999 14.7289 27.726 14.5201 27 14.3612V13.5405C27 13.1738 26.839 12.8256 26.5596 12.5881L16.8096 4.3006ZM17.4365 29C16.8409 28.5587 16.5 28.0464 16.5 27.5V21.1727C16.9364 21.5028 17.4365 21.7759 17.9594 22C19.4538 22.6405 21.4137 23 23.5 23C24.7343 23 25.9244 22.8742 27 22.6388C27.726 22.4799 28.3999 22.2711 29 22.0173C29.0136 22.0116 29.0271 22.0058 29.0406 22C29.5635 21.7759 30.0636 21.5028 30.5 21.1727V27.5C30.5 29.1569 27.366 30.5 23.5 30.5C20.909 30.5 18.6468 29.8967 17.4365 29ZM29 20.356C28.4507 20.6545 27.772 20.9073 27 21.0987C25.9704 21.3539 24.775 21.5 23.5 21.5C19.634 21.5 16.5 20.1569 16.5 18.5C16.5 16.8431 19.634 15.5 23.5 15.5C24.775 15.5 25.9704 15.6461 27 15.9013C27.772 16.0927 28.4507 16.3455 29 16.644C29.9394 17.1547 30.5 17.7993 30.5 18.5C30.5 19.2007 29.9394 19.8453 29 20.356Z" fill="#212121"/>
</svg>

<svg viewBox="0 0 32 32" fill="none" xmlns="http://www.w3.org/2000/svg" height="1em" width="1em">
  <path d="M16.81 4.3a1.25 1.25 0 0 0-1.62 0l-9.75 8.288a1.25 1.25 0 0 0-.44.953V26.5a.5.5 0 0 0 .5.5H15v.5c0 .567.167 1.07.422 1.5H5.5A2.5 2.5 0 0 1 3 26.5V13.54a3.25 3.25 0 0 1 1.145-2.476l9.75-8.287a3.25 3.25 0 0 1 4.21 0l9.75 8.287A3.25 3.25 0 0 1 29 13.54v1.443c-.6-.254-1.274-.463-2-.622v-.82a1.25 1.25 0 0 0-.44-.953l-9.75-8.287Zm.627 24.7c-.596-.441-.937-.954-.937-1.5v-6.327c.436.33.936.603 1.46.827 1.494.64 3.454 1 5.54 1 1.234 0 2.424-.126 3.5-.361.726-.16 1.4-.368 2-.622l.04-.017a6.98 6.98 0 0 0 1.46-.827V27.5c0 1.657-3.134 3-7 3-2.591 0-4.853-.603-6.064-1.5ZM29 20.356c-.55.298-1.228.551-2 .743-1.03.255-2.225.401-3.5.401-3.866 0-7-1.343-7-3s3.134-3 7-3c1.275 0 2.47.146 3.5.401.772.192 1.45.445 2 .743.94.51 1.5 1.155 1.5 1.856 0 .7-.56 1.345-1.5 1.856Z" fill="#212121"/>
</svg>
